X: 28
T: Maurice Manly's Polka
R: polka
O: Ireland
B:
D:
Z: John Chambers <jc:trillian.mit.edu>
N:
M: 2/4
L: 1/8
K: ADor
|: "Am"EA A>B | cd eg | "Em"EG G>F | GE ED | "Am"EA A>B | cd ef | "G"g>e dB | "Am"BA A2 :|
|: "Am"ea a>b | ag ef |  "G"g>f ga | ge ed | "Am"a>g ab | ag ef | "G"g>e dB | "Am"BA A2 :|
%%sep 1 1 500
